X:1
T:Motostoke City Theme
T:Motostoke City Theme
%%score { ( 1 3 ) | 2 }
L:1/8
Q:1/4=118
M:4/4
K:B
V:1 treble nm="Piano" snm="Pno."
V:3 treble 
V:2 bass 
V:1
"^\n\n" d4 B4 | c4 F2 d2 | g4 B4 | e4 =A2 G2 |:[K:C#] e4 c4 | d4 G4 | A4 c3 =e- | %7
 ed=ed [G=Be] .[F=Ad]2 [E-G-^e] | [EG]4- [EG][EG][DF][CE] | .[B,D]2 [CE] .C3 [F,A,]D/4E/4F/4G/4 | %10
 [FA]4- [FA][FA][EG][DF] | .[CE]2 [=DF] .[B,^D]3 [F,G,]E/4F/4G/4A/4 | [G=B]4- [GB][GB][FA][EG] | %13
 [DF]2 [EG] [^^CE]2 .A,2 =B,/4^C/4D/4E/4 | [DF][^^CE][DF] [EG]2 .[DF]2 .[B,D] | %15
 [CE].[EG][CE][B,D] D [EG]3 | g4- ggfe | d2 .=ec z3 d/4^e/4f/4g/4 | a4- aagf | e2 fd z4 | %20
 =b4- bbag | f2 ge- e A2 z | [df][de][df][dg]- [dg] [df]2 d | %23
 [EBe][GBg][EBe][DBd]- [DBd][GBg] C/E/F/G/ | [FA]/G/[FA]- [FA]3 [FA]B[Fc] | %25
 [GB]/.A[GB]/- [GB]4 z2 | [EB]/A/[EB]- [EB]3 GA[DB] | [^^CA]3 [B,G]/[A,F]/- [A,F]3 E | F/Ec/ c6 | %29
 F/E/F/c/ c4 E/D/C/D/ | [G,E]3 [F,D]/[E,C]/ z3 A/G/- | G3 d/^^c/- c3 F/G/ | %32
 [FA]/G/[FA]- [FA]3 [FA]B[Fc] | [GB]/.A[GB]/- [GB]4 z G/A/ | [EB]/A/[EB]- [EB]3 GA[DB] | %35
 [^^CA]3 [B,G]/[A,F]/- [A,F]3 E | F/E/F/c/ c6 | ^^F/E/F/c/ c4 z B/c/ | d3 G/G/- G3 ^^F/G/- | %39
 G4 gefd | e4 c4 | d4 G4 | A4 c4 | f4 d4 :| %44
V:2
 B,,,2 [D,F,B,]2 B,,,.B,,.A,,=A,,- | [=A,,,A,,][C,E,=A,] B,,/=A,,B,,/- B,,2 [C,E,A,]^A,,/=A,,/ | %2
 G,,2 [B,,E,G,]2 G,,.E,,.F,,=G,,- | [=G,,,G,,].[=A,,F,].[B,,=G,].[A,,F,] [C,=A,]2 [B,,A,]2 |: %4
[K:C#] C,,2 [E,G,C]2 C,,.C,.B,,=B,,- | [=B,,,B,,][D,F,=B,] C,/=B,,C,/- C,2 [D,F,B,]^B,,/=B,,/ | %6
 A,,2 [C,F,A,]2 A,,.F,,.G,,=A,,- | [=A,,,A,,].[=B,,G,].[C,=A,].[B,,G,] [D,=B,]2 [C,B,]2 | %8
 C,,2 [E,,G,,C,]C,,/C,,/- C,,2 [C,E,]G,, | ^^G,,2 [B,,E,^^G,] ^G,,2 ^^D,E,C, | %10
 D,,2 [F,,A,,D,]D,,/D,,/- D,,2 [D,F,]A,, | G,,2 [B,,D,G,] G,,2 D,B,,D, | %12
 E,,2 [G,,=B,,E,]E,,/E,,/- E,,2 [E,G,]B,, | A,,2 [^^C,E,A,] A,,2 G,E,C, | %14
 D,,2 [F,,A,,D,] D,,3 [D,F,]A,, | G,,2 [B,,D,G,] G,,3 [G,B,]D, | .C,,2 G,, .C,2 .G,,2 ^^G,, | %17
 A,,2 ^^F,, .=E,,2 ^E,, .G,,2 | .D,,2 A,, .D,2 .B,,2 A,, | .G,,3 .D,, F,,G,,B,,D, | %20
 .E,,2 D,, .E,,2 .G,,2 A,, | ^^C, .=B,,2 A,,2 G,,F,,E,, | .D,,2 A,, .D,2 .B,,2 A,, | %23
 .G,,2 D, .G,2 .E,C,E,, | [F,,,F,,]3 F,, [C,F,]2 F,/C,/A,,/F,,/ | %25
 [F,,,F,,]3 G,, [D,G,]2 G,/D,/B,,/G,,/ | [E,,,E,,]3 E,, [B,,E,]2 E,/B,,/^^G,,/E,,/ | %27
 [A,,,A,,]3 A,, [E,A,]2 A,/E,/^^C,/A,,/ | [D,,,D,,]3 D,, [A,,D,]2 D,/A,,/F,,/D,,/ | %29
 [G,,,G,,]3 G,, [D,G,]2 G,/D,/B,,/G,,/ | [C,,,C,,]3 C,, [G,,C,]2 C,/G,,/E,,/C,,/ | %31
 [A,,,^^C,]2 [A,,A,]2 [C,G,A,^^C]2 A,/E,/C,/A,,/ | %32
 F,,,3/2.[A,,C,F,]3/2F,,,- F,,,/F,,/F,/C,/ A,,/F,,/C,,/A,,,/ | %33
 F,,,3/2.[B,,D,G,]3/2F,,,- F,,,/G,,/G,/D,/ B,,/G,,/G,,,/F,,/ | %34
 E,,,3/2.[G,,B,,E,]3/2E,,,- E,,,/E,,/E,/B,,/ G,,/E,,/B,,,/G,,,/ | %35
 A,,,3/2.[^^C,E,A,]3/2A,,,- A,,,/B,,/A,/E,/ C,/A,,/E,,/^^C,,/ | %36
 D,,,3/2.[F,,A,,D,]3/2D,,,- D,,,/D,,/D,/A,,/ F,,/D,,/A,,,/F,,,/ | %37
 ^^F,,,3/2.[^^F,,A,,D,]3/2F,,,- F,,,/D,,/D,/A,,/ F,,/D,,/A,,,/F,,,/ | %38
 G,,,3/2.[B,,D,G,]3/2G,,,- G,,,/G,,/G,/D,/ B,,/G,,/D,,/B,,,/ | z8 | C,,2 [E,G,C]2 C,,.C,.B,,=B,,- | %41
 [=B,,,B,,][D,F,=B,] C,/=B,,C,/- C,2 [D,F,B,]^B,,/=B,,/ | A,,2 [C,F,A,]2 A,,.F,,.G,,=A,,- | %43
 [=A,,,A,,].[=B,,G,].[C,=A,].[B,,G,] [D,=B,]2 [C,B,]2 :| %44
V:3
 x8 | x8 | x8 | x8 |:[K:C#] x8 | x8 | x8 | x8 | x8 | x8 | x8 | x8 | x8 | x8 | x8 | x8 | x8 | %17
 x4 [g=e'][=ec'] x2 | x8 | x4 g'e'f'd' | x8 | x6 g'e' | x8 | x8 | x8 | x8 | x8 | x8 | x8 | x8 | %30
 x8 | x8 | x8 | x8 | x8 | x8 | x8 | x8 | x8 | x8 | x8 | x8 | x8 | x8 :| %44

